!!!COM: Bach, Johann Sebastian
!!!CDT: 1685/03/31-1750/07/28
!!!OTL: Sinfonia 2 in C minor
!!!SCA: BWV 788
**kern	**kern	**kern
*staff3	*staff2	*staff1
*clefF4	*clefG2	*clefG2
*k[b-e-a-]	*k[b-e-a-]	*k[b-e-a-]
*c:	*c:	*c:
*M12/8	*M12/8	*M12/8
*MM120	*MM120	*MM120
=1	=1	=1
4.C	1.r	8ccL
.	.	8g
.	.	8ee-J
4.c	.	8ee-L
.	.	8cc
.	.	8ggJ
8BnL	.	4.gg
8An	.	.
8GJ	.	.
8fL	.	4.g
8e-	.	.
8dJ	.	.
=2	=2	=2
4e-	1.r	8ccL
.	.	8dd
8c	.	8ee-J
4A-X	.	8ffL
.	.	8gg
8F	.	8aa-J
4G	.	8bnL
.	.	8aa-
8An	.	8ggJ
4Bn	.	8ffL
.	.	8ee-
8G	.	8ddJ
=3	=3	=3
4c	8cL	4.ee-
.	8G	.
8r	8e-J	.
4r	8e-L	[4.cc
.	8c	.
8r	8gJ	.
2.r	4.g	8ccL]
.	.	8bn
.	.	8ccJ
.	4.G	8ddL
.	.	8ee-
.	.	8ffJ
!!LO:LB:g=original
=4	=4	=4
1.r	8cL	8ee-L
.	8d	8ff
.	8e-J	8ee-J
.	8fL	8ddL
.	8g	8ee-
.	8a-J	8ccJ
.	8BnL	[2.gg
.	8a-	.
.	8gJ	.
.	8fL	.
.	8e-	.
.	8dJ	.
=5	=5	=5
8cL	4e-	4gg]
8G	.	.
8e-J	8r	8gg
8e-L	4r	4cc
8c	.	.
8gJ	8r	8ee-
4.A-	16r	4f
.	16cLL	.
.	16d	.
.	16e-	.
.	16f	8r
.	16gJJ	.
4r	16a-LL	4.r
.	16b-	.
.	16a-	.
.	16g	.
8r	16f	.
.	16e-JJ	.
=6	=6	=6
8B-L	4d	4r
8F	.	.
8dJ	8r	8ff
8dL	4.r	4b-
8B-	.	.
8fJ	.	8dd
4.G	16r	4e-
.	16B-LL	.
.	16c	.
.	16d	.
.	16e-	8r
.	16fJJ	.
4r	16gLL	4.r
.	16a-	.
.	16g	.
.	16f	.
8r	16e-	.
.	16dJJ	.
!!LO:LB:g=original
=7	=7	=7
8A-L	4c	[2.ee-MM
8E-	.	.
8cJ	8r	.
8cL	8r	.
8A-	8r	.
8e-J	8cc	.
8GL	[4.b-	2.ee-_
8E-	.	.
8B-J	.	.
8B-L	4b-]	.
8G	.	.
8e-J	8cc	.
=8	=8	=8
8FL	[4.a-	4ee-]
8G	.	.
8A-J	.	8ff
8B-L	4a-]	[4.dd
8c	.	.
8dJ	8b-	.
4.E-	4g	8ddL]
.	.	16ggL
.	.	16ff
.	8r	16ee-
.	.	16ddJJ
4.e-	4.r	16ccLL
.	.	16dd
.	.	16cc
.	.	16b-
.	.	16an
.	.	16gJJ
=9	=9	=9
!	!LO:N:vis=2	!
4.d	2.r	8f#XL
.	.	16aanL
.	.	16gg
.	.	16ff#X
.	.	16eenJJ
4.F#X	.	16ddLL
.	.	16ee-X
.	.	16dd
.	.	16cc
.	.	16b-
.	.	16anJJ
8GL	4.r	2.b-
8D	.	.
8B-J	.	.
8B-L	4.g	.
8G	.	.
8dJ	.	.
!!LO:LB:g=original
=10	=10	=10
4.d	8f#XL	4.an
.	8en	.
.	8dJ	.
4.D	8ccL	4.ff#X
.	8b-	.
.	8anJ	.
8GL	8b-L	4.gg
8An	8cc	.
8B-J	8b-J	.
8cL	8aL	4.r
8d	8b-	.
8e-J	8gJ	.
=11	=11	=11
!	!	!LO:N:vis=2
8F#XL	8ddL	2.r
8e-	8cc	.
8dJ	8b-J	.
8cL	8anL	.
8B-	8g	.
8AnJ	8f#XJ	.
4.B-	4g	8gL
.	.	8d
.	8r	8b-J
[4.G	4d	8b-L
.	.	8g
.	8r	8ddJ
=12	=12	=12
8GL]	4an	4.dd
8F#X	.	.
8GJ	8r	.
8AnL	4f#X	4.d
8B-	.	.
8cJ	8r	.
8B-L	4g	8gL
8c	.	8a
8B-J	8r	8b-J
8AL	4.r	8ccL
8B-	.	8dd
8GJ	.	8ee-J
!!LO:LB:g=original
=13	=13	=13
!	!LO:N:vis=2	!
8dL	2.r	8f#XL
8c	.	8ee-
8B-J	.	8ddJ
8AnL	.	8ccL
8G	.	8b-
8F#XJ	.	8anJ
4G	8gL	4b-
.	8d	.
8d	8b-J	8r
4G	8b-L	4.r
.	8g	.
8B-	8ddJ	.
=14	=14	=14
4C	4e-	16r
.	.	16gLL
.	.	16an
.	.	16b-
8r	8r	16cc
.	.	16ddJJ
4.r	4.r	16ee-LL
.	.	16ff
.	.	16ee-
.	.	16dd
.	.	16cc
.	.	16b-JJ
4r	8fL	4an
.	8c	.
8c	8aJ	8r
4F	8aL	4.r
.	8f	.
8An	8ccJ	.
=15	=15	=15
4BB-	4d	16r
.	.	16fLL
.	.	16g
.	.	16an
8r	8r	16b-
.	.	16ccJJ
4r	4.r	16ddLL
.	.	16ee-
.	.	16dd
.	.	16cc
8r	.	16b-
.	.	16aJJ
!	!	!
[2.BB-M	8e-L	4g
.	8B-	.
.	8gJ	8r
.	8gL	8r
.	8e-	8r
.	8b-J	8g
!!LO:LB:g=original
=16	=16	=16
2.BB-_	8dL	4f
.	8B-	.
.	8fJ	8r
.	8fL	8r
.	8d	8r
.	8b-J	8g
4.BB-]	8cL	4e-
.	8d	.
.	8e-J	8r
[4.AAn	8fL	8r
.	8g	8r
.	8anJ	8f
=17	=17	=17
8AAL]	4B-	4d
16DL	.	.
16C	.	.
16BB-	8r	8dd
16AAnJJ	.	.
16GGLL	8r	[4.b-
16AA	.	.
16GG	8r	.
16FF	.	.
16EE-	8g	.
16DDJJ	.	.
8CCL	[4.e-	4b-]
16E-L	.	.
16D	.	.
16C	.	8ee-
16BB-JJ	.	.
16AALL	4e-]	[4.cc
16BB-	.	.
16AA	.	.
16GG	.	.
16FF#X	8an	.
16EEnJJ	.	.
=18	=18	=18
4.DD	8f#XL	4.cc]
.	16ddL	.
.	16cc	.
.	16b-	.
.	16anJJ	.
8r	16gLL	[4.b-
.	16a	.
16r	16g	.
16GGLL	16fn	.
16AAn	16e-	.
16BB-JJ	16dJJ	.
16CLL	[4.e-	8b-L]
16BB-	.	.
16C	.	8a
16D	.	.
16E-	.	8gJ
16CJJ	.	.
16DLL	8e-L]	4.f#X
16E-	.	.
16D	8An	.
16C	.	.
16BB-	8cJ	.
16AAJJ	.	.
!!LO:LB:g=original
=19	=19	=19
4GG	4B-	8gL
.	.	8d
8r	8r	8b-J
4.r	4.r	8b-L
.	.	8g
.	.	8dd-XJ
8r	8r	[2.dd-
16B-LL	8r	.
16A-	.	.
16G	8b-	.
16FJJ	.	.
16EnLL	4g	.
16F	.	.
16E	.	.
16Dn	.	.
16C	8b-	.
16BB-JJ	.	.
=20	=20	=20
16AA-LL	4en	8dd-L]
16F	.	.
16En	.	8b-
16D	.	.
16C	8r	8eenJ
16BB-JJ	.	.
16AA-LL	4.r	8eeL
16BB-	.	.
16AA-	.	8cc
16GG	.	.
16FF	.	8ggJ
16EEnJJ	.	.
4FF	16r	[2.aa-
.	16ffLL	.
.	16ee-X	.
.	16dd-X	.
8r	16cc	.
.	16b-JJ	.
4.r	16a-LL	.
.	16b-	.
.	16a-	.
.	16g	.
.	16f	.
.	16e-XJJ	.
!!LO:LB:g=original
=21	=21	=21
!LO:N:vis=2	!	!
2.r	8dL	4.aa-_
.	8B-	.
.	8fJ	.
.	8fL	16aa-LL]
.	.	16bb-
.	8d	16aa-
.	.	16gg
.	8a-J	16ff
.	.	16ee-JJ
8r	[2.a-	16ddLL
.	.	16ee-
8r	.	16dd
.	.	16cc
8g	.	16b-
.	.	16ccJJ
4f	.	16ddLL
.	.	16ee-
.	.	16ff
.	.	16gg
8e-	.	16aa-
.	.	16bb-JJ
=22	=22	=22
4d	8a-L]	16cccLL
.	.	16bb-
.	8f	16aa-
.	.	16gg
8a-	8ddJ	16ff
.	.	16ee-JJ
4g	8ddL	16ffLL
.	.	16gg
.	8b-	16aa-
.	.	16ccc
8f	8ddJ	16bb-
.	.	16aa-JJ
16e-LL	[2.ee-	[2.gg
16G	.	.
16A-	.	.
16B-	.	.
16c	.	.
16dJJ	.	.
16e-LL	.	.
16f	.	.
16e-	.	.
16d	.	.
16c	.	.
16B-JJ	.	.
!!LO:LB:g=original
=23	=23	=23
[2.A-	8ee-]	4gg]
.	[4cc	.
.	.	8gg
.	4cc]	8ggL
.	.	8ee-
.	8ee-	8cccJ
16A-LL]	[2.dd	[2.ff
16F	.	.
16G	.	.
16An	.	.
16Bn	.	.
16cJJ	.	.
16dLL	.	.
16e-	.	.
16d	.	.
16c	.	.
16B	.	.
16AJJ	.	.
=24	=24	=24
[2.G	8dd]	4ff]
.	[4bn	.
.	.	8ff
.	4b]	8ffL
.	.	8dd
.	8dd	8bbnJ
16GLL]	[2.cc	[2.ee-
16E-	.	.
16F	.	.
16G	.	.
16An	.	.
16BnJJ	.	.
16cLL	.	.
16d	.	.
16c	.	.
16B-X	.	.
16A-X	.	.
16GJJ	.	.
!!LO:LB:g=original
=25	=25	=25
[2.F	4cc]	8ee-L]
.	.	16aa-L
.	.	16gg
.	8r	16ff
.	.	16ee-JJ
.	4.r	16ddLL
.	.	16ee-
.	.	16dd
.	.	16cc
.	.	16bn
.	.	16anJJ
4.F]	8r	4.b
.	16gLL	.
.	16f	.
.	16e-	.
.	16dJJ	.
[4.E-	16cLL	4.cc
.	16d	.
.	16c	.
.	16B-X	.
.	16A-X	.
.	16GJJ	.
=26	=26	=26
16E-LL]	4A-	[2.ff
16G	.	.
16F	.	.
16E-	.	.
16D	[8a-	.
16CJJ	.	.
16BBnLL	8a-L]	.
16C	.	.
16BB	8f	.
16AAn	.	.
16GG	[8bnJ	.
16FFJJ	.	.
4.EE-	8bL]	4ff]
.	8g	.
.	8ccJ	[8ee-
4.FF	[4.a-	8ee-L]
.	.	8dd
.	.	8ffJ
!!LO:LB:g=original
=27	=27	=27
4.GG	8a-L]	4.bn
.	8g	.
.	8fJ	.
4.AAn	8e-L	4.cc
.	8d	.
.	8cJ	.
8BBnL	4f	4dd
8GG	.	.
8CJ	8e-	[8cc
8AA-XL	4.d	8cc]
8FF	.	4b
8GGJ	.	.
=28	=28	=28
8CL	4e-	4cc
8GG	.	.
8E-J	8r	8gg
8E-L	4.r	4cc
8C	.	.
8GJ	.	8ee-
8FL	16r	4a-
.	16cLL	.
8C	16d	.
.	16e-	.
8A-J	16f	8r
.	16gJJ	.
8A-L	16a-LL	4.r
.	16b-	.
8F	16a-	.
.	16g	.
8cJ	16f	.
.	16e-JJ	.
=29	=29	=29
4B-	8dL	8r
.	8F	8r
8r	8dJ	8ff
4.r	8dL	4b-
.	8B-	.
.	8fJ	8dd
!LO:N:vis=2	!	!
2.r	8e-L	16gLL
.	.	16b-
.	8B-	16cc
.	.	16dd
.	8gJ	16ee-
.	.	16ffJJ
.	8gL	16ggLL
.	.	16aa-
.	8e-	16gg
.	.	16ff
.	8b-J	16ee-
.	.	16ddJJ
!!LO:LB:g=original
=30	=30	=30
8FL	4.a-	[2.ccM
8C	.	.
8A-J	.	.
8A-L	8r	.
8F	8r	.
8cJ	8a-	.
8E-L	[4.g	2.cc_
8C	.	.
8GJ	.	.
8GL	4g]	.
8E-	.	.
8cJ	8a-	.
=31	=31	=31
8DL	[2.f	4.cc]
8E-	.	.
8FJ	.	.
8GL	.	8bnL
8An	.	8cc
8BnJ	.	8ddJ
[2.E-	16fLL]	[2.g
.	16G	.
.	16An	.
.	16Bn	.
.	16c	.
.	16dJJ	.
.	16e-LL	.
.	16d	.
.	16c	.
.	16d	.
.	16e-	.
.	16fJJ	.
=32	=32	=32
16E-LL]	4g	16gLL]
16G	.	16bn
16F	.	16cc
16E-	.	16dd
16D	8r	16ee-
16CJJ	.	16ffJJ
4G	8r	8ggL
.	8e-L	8cc
8GG	8dJ	8bJ
2.CC;	2.en;	2.cc;
==	==	==
*-	*-	*-
!!!system-decoration: [(s1,s2,s3)]
!!!URL-pdf: https://vmirror.imslp.org/files/imglnks/usimg/5/55/IMSLP396136-PMLP03268-Bach,_Johann_Sebastian-Werke_Breitkopf_Band_3_02_BWV_787-801.pdf#page=2 Bach-Gesellschaft Ausgabe, Band 3 (pp.19-42) Leipzig: Breitkopf und Härtel, 1853. Plate B.W. III.
!!!URL-youtube: https://www.youtube.com/watch?v=Lao8x1bHWEg&t=63s Malinowski
!!!SMS: Bach-Gesellschaft Ausgabe, Band 3 (pp.19-42) Leipzig: Breitkopf und Härtel, 1853. Plate B.W. III.
!!!ONB: Open-score format
!!!ENC: Craig Stuart Sapp
!!!END: 2024/03/28
!!!EED: Craig Stuart Sapp
!!!EEV: 2024/03/28
!!!title: @{OTL} (@{SCA})
!!!voices: 3
!!!AGN: polyphony
!!!AST: baroque
!!!AMT: compound quadruple
!!!AIN: cemb; clavi
